rospo-icon-theme-classic-common/48x48/places/folder-violet-locked.svg

<svg height="48" width="48" xmlns="http://www.w3.org/2000/svg"><rect height="26" opacity=".2" rx="2" width="40" x="4" y="17"/><path d="m4 34c0 1.108.892 2 2 2h36c1.108 0 2-.892 2-2v-22c0-1.108-.892-2-2-2h-20v-2c0-1.108-.892-2-2-2h-14c-1.108 0-2 .892-2 2" fill="#8b58c5"/><rect height="26" opacity=".2" rx="2" width="40" x="4" y="15"/><rect fill="#e4e4e4" height="16" rx="2" width="36" x="6" y="13"/><rect fill="#a674de" height="26" rx="2" width="40" x="4" y="16"/><path d="m6 6c-1.108 0-2 .892-2 2v1c0-1.108.892-2 2-2h14c1.108 0 2 .892 2 2v-1c0-1.108-.892-2-2-2zm16 4v1h20c1.108 0 2 .892 2 2v-1c0-1.108-.892-2-2-2z" fill="#fff" opacity=".1"/><path d="m24 22c-2.216 0-4 1.821-4 4.062v1.938h-1c-.554 0-1 .446-1 1v6c0 .554.446 1 1 1h10c .554 0 1-.446 1-1v-6c0-.554-.446-1-1-1h-1v-1.938c0-2.24-1.784-4.062-4-4.062zm0 2c1.108 0 2 .891 2 2v2h-4v-2c0-1.109.892-2 2-2z" fill="#3a284d"/></svg>

<svg xmlns="http://www.w3.org/2000/svg" width="48" height="48" version="1">
 <rect style="opacity:0.2" width="40" height="26" x="4" y="17" rx="2" ry="2"/>
 <path style="fill:#8b58c5" d="M 4,34 C 4,35.108 4.892,36 6,36 H 42 C 43.108,36 44,35.108 44,34 V 12 C 44,10.892 43.108,10 42,10 H 22 V 8 C 22,6.892 21.108,6 20,6 H 6 C 4.892,6 4,6.892 4,8"/>
 <rect style="opacity:0.2" width="40" height="26" x="4" y="15" rx="2" ry="2"/>
 <rect style="fill:#dcdcdc" width="36" height="16" x="6" y="13" rx="2" ry="2"/>
 <rect style="fill:#a674de" width="40" height="26" x="4" y="16" rx="2" ry="2"/>
 <path style="opacity:0.1;fill:#ffffff" d="M 6,6 C 4.892,6 4,6.892 4,8 V 9 C 4,7.892 4.892,7 6,7 H 20 C 21.108,7 22,7.892 22,9 V 8 C 22,6.892 21.108,6 20,6 Z M 22,10 V 11 H 42 C 43.108,11 44,11.892 44,13 V 12 C 44,10.892 43.108,10 42,10 Z"/>
 <path style="fill:#3a284d" d="M 24,22 C 21.784,22 20,23.821 20,26.062 V 28 H 19 C 18.446,28 18,28.446 18,29 V 35 C 18,35.554 18.446,36 19,36 H 29 C 29.554,36 30,35.554 30,35 V 29 C 30,28.446 29.554,28 29,28 H 28 V 26.062 C 28,23.822 26.216,22 24,22 Z M 24,24 C 25.108,24 26,24.891 26,26 V 28 H 22 V 26 C 22,24.891 22.892,24 24,24 Z"/>
</svg>
